X:3130
T:Russian folk song
T:(C major version)
C:anon.
O:Russia
Z:Transcribed by Frank Nordberg - http://www.musicaviva.com
F:http://abc.musicaviva.com/tunes/russia/russian-folk-song-01-c.abc
M:3/4
L:1/8
K:C
G,2|"C"E4E2|"G"D2E2F2|"C"E2D2C2|\
M:2/4
L:1/8
"F"DE CD|\
M:3/4
L:1/8
"C"E6|"C"G2 z2 G,2|
"C"E4E2|"G"D2E2F2|"C"E2D2C2|\
M:2/4
L:1/8
"F"DE CA,|\
M:3/4
L:1/8
"C"C6-|"C"C2 z2|]
W:
W:
W:  From Musica Viva - http://www.musicaviva.com
W:  the Internet center for free sheet music downloads.



